; HEADER_BLOCK_START
; generated by OrcaSlicer 2.3.1 on 2026-01-06 at 10:41:14
; total layer number: 96
; filament_density: 1.24
; filament_diameter: 1.75
; max_z_height: 19.44
; HEADER_BLOCK_END

; external perimeters extrusion width = 0.42mm
; perimeters extrusion width = 0.45mm
; infill extrusion width = 0.45mm
; solid infill extrusion width = 0.42mm
; top infill extrusion width = 0.42mm
; first layer extrusion width = 0.46mm

; EXECUTABLE_BLOCK_START
M201 X2500 Y2500 Z500 E5000
M203 X250 Y250 Z5 E40
M204 P2500 R500 T2500 ; sets acceleration (P, T) and retract acceleration (R), mm/sec^2
M205 X10.00 Y10.00 Z0.40 E5.00 ; sets the jerk limits, mm/sec
;TYPE:Custom
M220 S100 ;Reset Feedrate 
M221 S100 ;Reset Flowrate 
 
M104 S215 ;Set final nozzle temp 
M190 S60 ;Set and wait for bed temp to stabilize 
G28 ;Home 
G92 E0 ;Reset Extruder 
G1 Z2.0 F3000 ;Move Z Axis up 
G1 X-2.1 Y20 Z0.28 F5000.0 ;Move to start position 
M109 S215 ;Wait for nozzle temp to stabilize 
G1 X-2.1 Y145.0 Z0.28 F1500.0 E15 ;Draw the first line 
G1 X-2.4 Y145.0 Z0.28 F5000.0 ;Move to side a little 
G1 X-2.4 Y20 Z0.28 F1500.0 E30 ;Draw the second line 
G92 E0  ;Reset Extruder 
G1 E-1.0000 F1800 ;Retract a bit 
G1 Z2.0 F3000 ;Move Z Axis up 
G1 E0.0000 F1800
G90
G21
M83 ; use relative distances for extrusion
; Filament gcode
M106 S255
;LAYER_CHANGE
;Z:0.24
;HEIGHT:0.24
;BEFORE_LAYER_CHANGE
;0.24
G92 E0

G1 E-1.2 F2400
;_SET_FAN_SPEED_CHANGING_LAYER
M204 P500
; printing object pan y talla.stl id:15 copy 0
M204 T500
G1 X92.881 Y90.334 F9000
G1 Z.64
G1 Z.24
G1 E1.2 F1800
;TYPE:Brim
;WIDTH:0.46
G1 F900
G1 X93.126 Y90.088 E.01388
G1 X93.49 Y89.879 E.01678
G1 X93.938 Y89.752 E.0186
G1 X94.116 Y89.741 E.00713
G1 X125.877 Y89.741 E1.26868
G1 X126.242 Y89.786 E.01466
G1 X126.565 Y89.906 E.01376
G1 X126.874 Y90.089 E.01436
G1 X127.122 Y90.336 E.014
G1 X127.366 Y90.786 E.02044
G1 X127.458 Y91.146 E.01484
G1 X127.47 Y91.327 E.00724
G1 X127.47 Y126.396 E1.40082
G1 X127.424 Y126.763 E.01477
G1 X127.35 Y126.978 E.0091
G1 X127.119 Y127.395 E.01902
G1 X126.874 Y127.641 E.01388
G1 X126.51 Y127.85 E.01678
G1 X126.062 Y127.977 E.0186
G1 X125.884 Y127.988 E.00713
G1 X94.123 Y127.988 E1.26868
G1 X93.756 Y127.943 E.01477
G1 X93.54 Y127.869 E.0091
G1 X93.124 Y127.638 E.01902
G1 X92.877 Y127.393 E.01388
G1 X92.669 Y127.028 E.01678
G1 X92.542 Y126.58 E.0186
G1 X92.53 Y126.402 E.00713
G1 X92.53 Y91.333 E1.40082
G1 X92.576 Y90.966 E.01477
G1 X92.65 Y90.751 E.0091
G1 X92.861 Y90.369 E.01742
G1 X93.221 Y90.572 F9000
G1 F900
G1 X93.222 Y90.57 E.0001
G1 X93.391 Y90.407 E.00937
G1 X93.637 Y90.266 E.01133
G1 X93.995 Y90.16 E.01492
G1 X94.133 Y90.149 E.00554
G1 X125.86 Y90.15 E1.26729
G1 X126.157 Y90.19 E.01201
G1 X126.398 Y90.281 E.01026
G1 X126.633 Y90.425 E.01101
G1 X126.8 Y90.599 E.00965
G1 X126.976 Y90.923 E.0147
G1 X127.05 Y91.199 E.01143
G1 X127.061 Y91.344 E.0058
G1 X127.061 Y126.363 E1.39883
G1 X127.026 Y126.658 E.01187
G1 X126.979 Y126.801 E.00603
G1 X126.778 Y127.159 E.01639
G1 X126.609 Y127.322 E.00937
G1 X126.363 Y127.463 E.01133
G1 X126.005 Y127.568 E.01492
G1 X125.867 Y127.58 E.00554
G1 X94.156 Y127.58 E1.26669
G1 X93.861 Y127.544 E.01187
G1 X93.717 Y127.498 E.00603
G1 X93.36 Y127.296 E.01639
G1 X93.196 Y127.128 E.00937
G1 X93.056 Y126.882 E.01133
G1 X92.95 Y126.523 E.01492
G1 X92.939 Y126.385 E.00554
G1 X92.939 Y91.366 E1.39883
G1 X92.974 Y91.071 E.01187
G1 X93.021 Y90.927 E.00603
G1 X93.201 Y90.607 E.01469
G1 X93.547 Y90.826 F9000
G1 F900
G1 X93.548 Y90.825 E.00007
G1 X93.639 Y90.736 E.00508
G1 X93.827 Y90.626 E.00871
G1 X94.119 Y90.558 E.01197
G1 X125.88 Y90.558 E1.26868
G1 X126.031 Y90.582 E.0061
G1 X126.199 Y90.639 E.00709
G1 X126.386 Y90.758 E.00885
G1 X126.474 Y90.85 E.00508
G1 X126.585 Y91.038 E.00871
G1 X126.653 Y91.329 E.01197
G1 X126.653 Y126.398 E1.40082
G1 X126.628 Y126.549 E.0061
G1 X126.571 Y126.717 E.00709
G1 X126.452 Y126.904 E.00885
G1 X126.361 Y126.993 E.00508
G1 X126.173 Y127.103 E.00871
G1 X125.881 Y127.171 E.01197
G1 X94.12 Y127.171 E1.26868
G1 X93.969 Y127.146 E.0061
G1 X93.801 Y127.089 E.00709
G1 X93.614 Y126.971 E.00885
G1 X93.526 Y126.879 E.00508
G1 X93.415 Y126.691 E.00871
G1 X93.347 Y126.399 E.01197
G1 X93.347 Y91.33 E1.40082
G1 X93.372 Y91.18 E.0061
G1 X93.429 Y91.012 E.00709
G1 X93.525 Y90.86 E.00718
G1 X93.821 Y91.129 F9000
G1 F900
G1 X93.933 Y91.02 E.00624
G1 X94.11 Y90.966 E.00739
G1 X125.89 Y90.966 E1.26944
G1 X126.081 Y91.031 E.00808
G1 X126.19 Y91.144 E.00624
G1 X126.244 Y91.32 E.00739
G1 X126.244 Y126.408 E1.40158
G1 X126.179 Y126.6 E.00808
G1 X126.067 Y126.708 E.00624
G1 X125.89 Y126.763 E.00739
G1 X94.11 Y126.763 E1.26944
G1 X93.919 Y126.698 E.00808
G1 X93.81 Y126.585 E.00624
G1 X93.756 Y126.408 E.00739
G1 X93.756 Y91.32 E1.40158
G1 X93.808 Y91.167 E.00648
G1 E-.84 F2400
;WIPE_START
G1 F900
G1 X93.933 Y91.02 E-.06939
G1 X94.11 Y90.966 E-.06656
G1 X94.732 Y90.966 E-.22406
;WIPE_END
G17
G3 Z.64 I-1.217 J.016 P1  F9000
G1 X95.183 Y125.336 Z.64
G1 Z.24
G1 E1.2 F1800
;TYPE:Inner wall
;WIDTH:0.459999
G1 F900
G1 X95.183 Y92.393 E1.31588
G1 X124.817 Y92.393 E1.18374
G1 X124.817 Y125.336 E1.31588
G1 X95.223 Y125.336 E1.18214
G1 X94.774 Y125.744 F9000
G1 F900
G1 X94.774 Y91.985 E1.34851
G1 X125.226 Y91.985 E1.21637
G1 X125.226 Y125.744 E1.34851
G1 X94.814 Y125.744 E1.21478
G1 X94.34 Y126.178 F9000
;TYPE:Outer wall
G1 F900
G1 X94.34 Y91.55 E1.38321
G1 X125.66 Y91.55 E1.25106
G1 X125.66 Y126.178 E1.38321
G1 X94.38 Y126.178 E1.24947
G1 E-.84 F2400
;WIPE_START
G1 F900
G1 X94.379 Y125.178 E-.36
;WIPE_END
G17
G3 Z.64 I.331 J1.171 P1  F9000
G1 X123.776 Y116.86 Z.64
G1 Z.24
G1 E1.2 F1800
;TYPE:Inner wall
G1 F900
G1 X123.767 Y116.964 E.00416
G1 X123.663 Y117.268 E.01285
G1 X123.374 Y117.604 E.0177
G1 X123.047 Y117.767 E.01459
G1 X122.762 Y117.808 E.01154
G1 X97.239 Y117.808 E1.01951
G1 X96.953 Y117.768 E.01154
G1 X96.626 Y117.604 E.01459
G1 X96.337 Y117.268 E.0177
G1 X96.217 Y116.919 E.01473
G1 X96.217 Y99.364 E.70122
G1 X96.337 Y98.884 E.01979
G1 X96.626 Y98.547 E.0177
G1 X96.953 Y98.384 E.01459
G1 X97.238 Y98.343 E.01154
G1 X122.761 Y98.343 E1.01951
G1 X123.047 Y98.384 E.01154
G1 X123.374 Y98.547 E.01459
G1 X123.663 Y98.883 E.0177
G1 X123.783 Y99.364 E.01979
G1 X123.783 Y116.787 E.69595
G1 X123.78 Y116.82 E.00132
G1 X123.349 Y116.889 F9000
G1 F900
G1 X123.302 Y117.075 E.00767
G1 X123.129 Y117.277 E.01062
G1 X122.884 Y117.4 E.01095
G1 X97.239 Y117.4 E1.0244
G1 X97.067 Y117.375 E.00692
G1 X96.871 Y117.277 E.00876
G1 X96.698 Y117.075 E.01062
G1 X96.626 Y116.787 E.01187
G1 X96.626 Y99.364 E.69595
G1 X96.698 Y99.076 E.01187
G1 X96.871 Y98.874 E.01062
G1 X97.067 Y98.776 E.00876
G1 X98.158 Y98.751 E.04358
G1 X122.761 Y98.751 E.98279
G1 X122.933 Y98.776 E.00692
G1 X123.129 Y98.874 E.00876
G1 X123.302 Y99.076 E.01062
G1 X123.374 Y99.364 E.01187
G1 X123.374 Y116.787 E.69595
G1 X123.358 Y116.85 E.00261
G1 X122.94 Y116.787 F9000
;TYPE:Outer wall
G1 F900
G1 X122.869 Y116.93 E.00638
G1 X122.762 Y116.966 E.00451
G1 X97.239 Y116.966 E1.01951
G1 X97.131 Y116.93 E.00451
G1 X97.06 Y116.787 E.00638
G1 X97.06 Y99.364 E.69595
G1 X97.131 Y99.221 E.00638
G1 X97.238 Y99.186 E.00451
G1 X122.761 Y99.186 E1.01951
G1 X122.869 Y99.221 E.00451
G1 X122.94 Y99.364 E.00638
G1 X122.94 Y116.747 E.69436
G1 E-.84 F2400
;WIPE_START
G1 F900
G1 X122.869 Y116.93 E-.07065
G1 X122.762 Y116.966 E-.04064
G1 X122.071 Y116.966 E-.24871
;WIPE_END
G1 Z.64 F9000
G1 X124.695 Y93.346 Z.64
G1 Z.24
G1 E1.2 F1800
;TYPE:Bottom surface
;WIDTH:0.462343
G1 X124.048 Y92.699 E.03675
G1 X123.467 Y92.699 E.02334
G1 X124.511 Y93.744 E.05932
G1 X124.511 Y94.325 E.02334
G1 X122.886 Y92.699 E.09233
G1 X122.305 Y92.699 E.02334
G1 X124.511 Y94.906 E.12534
G1 X124.511 Y95.487 E.02334
G1 X121.724 Y92.699 E.15835
G1 X121.143 Y92.699 E.02334
G1 X124.511 Y96.068 E.19136
G1 X124.511 Y96.649 E.02334
G1 X120.562 Y92.699 E.22437
G1 X119.981 Y92.699 E.02334
G1 X124.511 Y97.23 E.25738
G1 X124.511 Y97.811 E.02334
G1 X119.4 Y92.699 E.29039
G1 X118.819 Y92.699 E.02334
G1 X124.511 Y98.392 E.3234
G1 X124.511 Y98.973 E.02334
G1 X118.238 Y92.699 E.35641
G1 X117.657 Y92.699 E.02334
G1 X123.031 Y98.074 E.30535
G1 X123.135 Y98.089 E.00424
G1 X123.561 Y98.302 E.01911
G1 X123.936 Y98.739 E.02316
G1 X124.016 Y99.059 E.01323
G1 X124.695 Y99.738 E.03856
G1 X123.905 Y99.529 F9000
G1 F1800
G1 X124.511 Y100.135 E.03441
G1 X124.511 Y100.716 E.02334
G1 X124.089 Y100.294 E.02396
G1 X124.089 Y100.875 E.02334
G1 X124.511 Y101.297 E.02396
G1 X124.511 Y101.878 E.02334
G1 X124.089 Y101.456 E.02396
G1 X124.089 Y102.037 E.02334
G1 X124.511 Y102.459 E.02396
G1 X124.511 Y103.04 E.02334
G1 X124.089 Y102.618 E.02396
G1 X124.089 Y103.199 E.02334
G1 X124.511 Y103.621 E.02396
G1 X124.511 Y104.202 E.02334
G1 X124.089 Y103.78 E.02396
G1 X124.089 Y104.361 E.02334
G1 X124.511 Y104.783 E.02396
G1 X124.511 Y105.364 E.02334
G1 X124.089 Y104.942 E.02396
G1 X124.089 Y105.523 E.02334
G1 X124.511 Y105.945 E.02396
G1 X124.511 Y106.526 E.02334
G1 X124.089 Y106.104 E.02396
G1 X124.089 Y106.685 E.02334
G1 X124.511 Y107.107 E.02396
G1 X124.511 Y107.688 E.02334
G1 X124.089 Y107.266 E.02396
G1 X124.089 Y107.847 E.02334
G1 X124.511 Y108.269 E.02396
G1 X124.511 Y108.85 E.02334
G1 X124.089 Y108.428 E.02396
G1 X124.089 Y109.009 E.02334
G1 X124.511 Y109.431 E.02396
G1 X124.511 Y110.012 E.02334
G1 X124.089 Y109.59 E.02396
G1 X124.089 Y110.171 E.02334
G1 X124.511 Y110.593 E.02396
G1 X124.511 Y111.174 E.02334
G1 X124.089 Y110.752 E.02396
G1 X124.089 Y111.333 E.02334
G1 X124.511 Y111.755 E.02396
G1 X124.511 Y112.336 E.02334
G1 X124.089 Y111.914 E.02396
G1 X124.089 Y112.495 E.02334
G1 X124.511 Y112.917 E.02396
G1 X124.511 Y113.498 E.02334
G1 X124.089 Y113.076 E.02396
G1 X124.089 Y113.657 E.02334
G1 X124.511 Y114.079 E.02396
G1 X124.511 Y114.66 E.02334
G1 X124.089 Y114.238 E.02396
G1 X124.089 Y114.819 E.02334
G1 X124.511 Y115.241 E.02396
G1 X124.511 Y115.822 E.02334
G1 X124.089 Y115.4 E.02396
G1 X124.089 Y115.981 E.02334
G1 X124.511 Y116.403 E.02396
G1 X124.511 Y116.984 E.02334
G1 X124.089 Y116.562 E.02396
G1 X124.089 Y116.791 E.0092
G1 X124.069 Y117.02 E.00922
G1 X124.043 Y117.097 E.00327
G1 X124.511 Y117.565 E.0266
G1 X124.511 Y118.146 E.02334
G1 X123.862 Y117.498 E.03684
G1 X123.594 Y117.811 E.01655
G1 X124.511 Y118.727 E.05208
G1 X124.511 Y119.308 E.02334
G1 X123.222 Y118.019 E.07324
G1 X123.136 Y118.062 E.00388
G1 X122.736 Y118.115 E.01617
G1 X124.511 Y119.889 E.10082
G1 X124.511 Y120.47 E.02334
G1 X122.155 Y118.115 E.13383
G1 X121.574 Y118.115 E.02334
G1 X124.511 Y121.051 E.16684
G1 X124.511 Y121.632 E.02334
G1 X120.993 Y118.115 E.19985
G1 X120.412 Y118.115 E.02334
G1 X124.511 Y122.213 E.23286
G1 X124.511 Y122.794 E.02334
G1 X119.831 Y118.115 E.26587
G1 X119.25 Y118.115 E.02334
G1 X124.511 Y123.375 E.29888
G1 X124.511 Y123.956 E.02334
G1 X118.669 Y118.115 E.33189
G1 X118.088 Y118.115 E.02334
G1 X124.511 Y124.537 E.3649
G1 X124.511 Y125.029 E.01976
G1 X124.422 Y125.029 E.00358
G1 X117.507 Y118.115 E.39285
G1 X116.926 Y118.115 E.02334
G1 X123.841 Y125.029 E.39285
G1 X123.26 Y125.029 E.02334
G1 X116.345 Y118.115 E.39285
G1 X115.764 Y118.115 E.02334
G1 X122.679 Y125.029 E.39285
G1 X122.098 Y125.029 E.02334
G1 X115.183 Y118.115 E.39285
G1 X114.602 Y118.115 E.02334
G1 X121.517 Y125.029 E.39285
G1 X120.936 Y125.029 E.02334
G1 X114.021 Y118.115 E.39285
G1 X113.44 Y118.115 E.02334
G1 X120.355 Y125.029 E.39285
G1 X119.774 Y125.029 E.02334
G1 X112.859 Y118.115 E.39285
G1 X112.278 Y118.115 E.02334
G1 X119.193 Y125.029 E.39285
G1 X118.612 Y125.029 E.02334
G1 X111.697 Y118.115 E.39285
G1 X111.116 Y118.115 E.02334
G1 X118.031 Y125.029 E.39285
G1 X117.45 Y125.029 E.02334
G1 X110.535 Y118.115 E.39285
G1 X109.954 Y118.115 E.02334
G1 X116.869 Y125.029 E.39285
G1 X116.288 Y125.029 E.02334
G1 X109.373 Y118.115 E.39285
G1 X108.792 Y118.115 E.02334
G1 X115.707 Y125.029 E.39285
G1 X115.126 Y125.029 E.02334
G1 X108.211 Y118.115 E.39285
G1 X107.63 Y118.115 E.02334
G1 X114.545 Y125.029 E.39285
G1 X113.964 Y125.029 E.02334
G1 X107.049 Y118.115 E.39285
G1 X106.468 Y118.115 E.02334
G1 X113.383 Y125.029 E.39285
G1 X112.802 Y125.029 E.02334
G1 X105.887 Y118.115 E.39285
G1 X105.306 Y118.115 E.02334
G1 X112.221 Y125.029 E.39285
G1 X111.64 Y125.029 E.02334
G1 X104.725 Y118.115 E.39285
G1 X104.144 Y118.115 E.02334
G1 X111.059 Y125.029 E.39285
G1 X110.478 Y125.029 E.02334
G1 X103.563 Y118.115 E.39285
G1 X102.982 Y118.115 E.02334
G1 X109.897 Y125.029 E.39285
G1 X109.316 Y125.029 E.02334
G1 X102.401 Y118.115 E.39285
G1 X101.82 Y118.115 E.02334
G1 X108.734 Y125.029 E.39285
G1 X108.153 Y125.029 E.02334
G1 X101.239 Y118.115 E.39285
G1 X100.658 Y118.115 E.02334
G1 X107.572 Y125.029 E.39285
G1 X106.991 Y125.029 E.02334
G1 X100.077 Y118.115 E.39285
G1 X99.496 Y118.115 E.02334
G1 X106.41 Y125.029 E.39285
G1 X105.829 Y125.029 E.02334
G1 X98.915 Y118.115 E.39285
G1 X98.334 Y118.115 E.02334
G1 X105.248 Y125.029 E.39285
G1 X104.667 Y125.029 E.02334
G1 X97.569 Y117.931 E.40329
G1 E-.84 F2400
;WIPE_START
G1 F1800
G1 X98.276 Y118.638 E-.36
;WIPE_END
G17
G3 Z.64 I.782 J.932 P1  F9000
G1 X122.596 Y98.22 Z.64
G1 Z.24
G1 E1.2 F1800
G1 X117.076 Y92.699 E.31366
G1 X116.495 Y92.699 E.02334
G1 X121.832 Y98.036 E.30322
G1 X121.251 Y98.036 E.02334
G1 X115.914 Y92.699 E.30322
G1 X115.333 Y92.699 E.02334
G1 X120.67 Y98.036 E.30322
G1 X120.089 Y98.036 E.02334
G1 X114.752 Y92.699 E.30322
G1 X114.171 Y92.699 E.02334
G1 X119.508 Y98.036 E.30322
G1 X118.927 Y98.036 E.02334
G1 X113.59 Y92.699 E.30322
G1 X113.009 Y92.699 E.02334
G1 X118.346 Y98.036 E.30322
G1 X117.765 Y98.036 E.02334
G1 X112.427 Y92.699 E.30322
G1 X111.846 Y92.699 E.02334
G1 X117.183 Y98.036 E.30322
G1 X116.602 Y98.036 E.02334
G1 X111.265 Y92.699 E.30322
G1 X110.684 Y92.699 E.02334
G1 X116.021 Y98.036 E.30322
G1 X115.44 Y98.036 E.02334
G1 X110.103 Y92.699 E.30322
G1 X109.522 Y92.699 E.02334
G1 X114.859 Y98.036 E.30322
G1 X114.278 Y98.036 E.02334
G1 X108.941 Y92.699 E.30322
G1 X108.36 Y92.699 E.02334
G1 X113.697 Y98.036 E.30322
G1 X113.116 Y98.036 E.02334
G1 X107.779 Y92.699 E.30322
G1 X107.198 Y92.699 E.02334
G1 X112.535 Y98.036 E.30322
G1 X111.954 Y98.036 E.02334
G1 X106.617 Y92.699 E.30322
G1 X106.036 Y92.699 E.02334
G1 X111.373 Y98.036 E.30322
G1 X110.792 Y98.036 E.02334
G1 X105.455 Y92.699 E.30322
G1 X104.874 Y92.699 E.02334
G1 X110.211 Y98.036 E.30322
G1 X109.63 Y98.036 E.02334
G1 X104.293 Y92.699 E.30322
G1 X103.712 Y92.699 E.02334
G1 X109.049 Y98.036 E.30322
G1 X108.468 Y98.036 E.02334
G1 X103.131 Y92.699 E.30322
G1 X102.55 Y92.699 E.02334
G1 X107.887 Y98.036 E.30322
G1 X107.306 Y98.036 E.02334
G1 X101.969 Y92.699 E.30322
G1 X101.388 Y92.699 E.02334
G1 X106.725 Y98.036 E.30322
G1 X106.144 Y98.036 E.02334
G1 X100.807 Y92.699 E.30322
G1 X100.226 Y92.699 E.02334
G1 X105.563 Y98.036 E.30322
G1 X104.982 Y98.037 E.02334
G1 X99.645 Y92.699 E.30322
G1 X99.064 Y92.699 E.02334
G1 X104.401 Y98.037 E.30322
G1 X103.82 Y98.037 E.02334
G1 X98.483 Y92.699 E.30322
G1 X97.902 Y92.699 E.02334
G1 X103.239 Y98.037 E.30322
G1 X102.658 Y98.037 E.02334
G1 X97.321 Y92.699 E.30322
G1 X96.74 Y92.699 E.02334
G1 X102.077 Y98.037 E.30322
G1 X101.496 Y98.037 E.02334
G1 X96.159 Y92.699 E.30322
G1 X95.578 Y92.7 E.02334
G1 X100.915 Y98.037 E.30322
G1 X100.334 Y98.037 E.02334
G1 X95.489 Y93.191 E.27527
G1 X95.489 Y93.772 E.02334
G1 X99.753 Y98.037 E.24226
G1 X99.172 Y98.037 E.02334
G1 X95.489 Y94.353 E.20925
G1 X95.489 Y94.935 E.02334
G1 X98.591 Y98.037 E.17624
G1 X98.01 Y98.037 E.02334
G1 X95.489 Y95.516 E.14323
G1 X95.489 Y96.097 E.02334
G1 X97.429 Y98.037 E.11022
G1 X97.231 Y98.037 E.00795
G1 X96.896 Y98.084 E.01361
G1 X95.489 Y96.678 E.07993
G1 X95.489 Y97.259 E.02334
G1 X96.501 Y98.271 E.0575
G1 X96.439 Y98.302 E.00279
G1 X96.214 Y98.564 E.0139
G1 X95.489 Y97.84 E.04118
G1 X95.489 Y98.421 E.02334
G1 X96.013 Y98.944 E.02975
G1 X95.911 Y99.352 E.01687
G1 X95.911 Y99.423 E.00289
G1 X95.489 Y99.002 E.02396
G1 X95.489 Y99.583 E.02334
G1 X95.911 Y100.004 E.02396
G1 X95.911 Y100.585 E.02334
G1 X95.489 Y100.164 E.02396
G1 X95.489 Y100.745 E.02334
G1 X95.911 Y101.166 E.02396
G1 X95.911 Y101.747 E.02334
G1 X95.489 Y101.326 E.02396
G1 X95.489 Y101.907 E.02334
G1 X95.911 Y102.328 E.02396
