; HEADER_BLOCK_START
; generated by OrcaSlicer 2.3.1 on 2026-01-06 at 00:59:41
; total layer number: 73
; filament_density: 1.24
; filament_diameter: 1.75
; max_z_height: 14.84
; HEADER_BLOCK_END

; external perimeters extrusion width = 0.42mm
; perimeters extrusion width = 0.45mm
; infill extrusion width = 0.45mm
; solid infill extrusion width = 0.42mm
; top infill extrusion width = 0.42mm
; first layer extrusion width = 0.46mm

; EXECUTABLE_BLOCK_START
M201 X2500 Y2500 Z500 E5000
M203 X250 Y250 Z5 E40
M204 P2500 R500 T2500 ; sets acceleration (P, T) and retract acceleration (R), mm/sec^2
M205 X10.00 Y10.00 Z0.40 E5.00 ; sets the jerk limits, mm/sec
;TYPE:Custom
M220 S100 ;Reset Feedrate 
M221 S100 ;Reset Flowrate 
 
M104 S215 ;Set final nozzle temp 
M190 S60 ;Set and wait for bed temp to stabilize 
G28 ;Home 
G92 E0 ;Reset Extruder 
G1 Z2.0 F3000 ;Move Z Axis up 
G1 X-2.1 Y20 Z0.28 F5000.0 ;Move to start position 
M109 S215 ;Wait for nozzle temp to stabilize 
G1 X-2.1 Y145.0 Z0.28 F1500.0 E15 ;Draw the first line 
G1 X-2.4 Y145.0 Z0.28 F5000.0 ;Move to side a little 
G1 X-2.4 Y20 Z0.28 F1500.0 E30 ;Draw the second line 
G92 E0  ;Reset Extruder 
G1 E-1.0000 F1800 ;Retract a bit 
G1 Z2.0 F3000 ;Move Z Axis up 
G1 E0.0000 F1800
G90
G21
M83 ; use relative distances for extrusion
; Filament gcode
M106 S255
;LAYER_CHANGE
;Z:0.24
;HEIGHT:0.24
;BEFORE_LAYER_CHANGE
;0.24
G92 E0

G1 E-1.2 F2400
;_SET_FAN_SPEED_CHANGING_LAYER
M204 P500
; printing object pantallla.stl id:15 copy 0
M204 T500
G1 X94.663 Y92.954 F9000
G1 Z.64
G1 Z.24
G1 E1.2 F1800
;TYPE:Brim
;WIDTH:0.46
G1 F900
G1 X94.97 Y92.705 E.0158
G1 X95.394 Y92.429 E.02023
G1 X95.653 Y92.297 E.01159
G1 X95.981 Y92.168 E.01406
G1 X96.416 Y92.061 E.01791
G1 X96.972 Y92 E.02235
G1 X103.551 Y91.975 E.26278
G1 X122.179 Y91.975 E.74411
G1 X123.132 Y91.982 E.03807
G1 X123.532 Y92.023 E.01603
G1 X123.76 Y92.072 E.00934
G1 X124.105 Y92.186 E.01452
G1 X124.538 Y92.389 E.0191
G1 X125.122 Y92.77 E.02782
G1 X125.454 Y93.049 E.01734
G1 X125.788 Y93.389 E.01903
G1 X126.116 Y93.81 E.02132
G1 X126.315 Y94.144 E.0155
G1 X126.443 Y94.418 E.01211
G1 X126.513 Y94.626 E.00875
G1 X126.618 Y95.005 E.01572
G1 X126.721 Y95.523 E.02109
G1 X126.734 Y95.702 E.00717
G1 X126.73 Y126.845 E1.24399
G1 X126.681 Y127.211 E.01474
G1 X126.606 Y127.426 E.00911
G1 X126.372 Y127.84 E.01902
G1 X126.125 Y128.085 E.01389
G1 X125.756 Y128.293 E.01692
G1 X125.133 Y128.425 E.02544
G1 X94.85 Y128.419 E1.20964
G1 X94.484 Y128.371 E.01474
G1 X94.269 Y128.296 E.0091
G1 X93.854 Y128.062 E.01902
G1 X93.609 Y127.816 E.01389
G1 X93.4 Y127.446 E.01695
G1 X93.268 Y126.822 E.02547
G1 X93.276 Y96.27 E1.22039
G1 X93.303 Y95.489 E.03124
G1 X93.379 Y95.064 E.01722
G1 X93.622 Y94.316 E.03142
G1 X93.835 Y93.899 E.01869
G1 X93.973 Y93.694 E.0099
G1 X94.267 Y93.357 E.01786
G1 X94.635 Y92.982 E.02096
G1 X94.927 Y93.269 F9000
G1 F900
G1 X94.943 Y93.252 E.00096
G1 X95.216 Y93.032 E.01398
G1 X95.594 Y92.787 E.018
G1 X96.113 Y92.556 E.02268
G1 X96.495 Y92.464 E.01573
G1 X97.002 Y92.409 E.02036
G1 X103.552 Y92.384 E.26164
G1 X122.177 Y92.384 E.74398
G1 X123.116 Y92.391 E.0375
G1 X123.461 Y92.426 E.01384
G1 X123.646 Y92.465 E.00757
G1 X123.961 Y92.569 E.01323
G1 X124.331 Y92.743 E.01636
G1 X124.884 Y93.103 E.02632
G1 X125.18 Y93.353 E.0155
G1 X125.484 Y93.664 E.01736
G1 X125.773 Y94.035 E.0188
G1 X125.95 Y94.33 E.01374
G1 X126.124 Y94.749 E.01811
G1 X126.222 Y95.104 E.0147
G1 X126.314 Y95.57 E.01897
G1 X126.321 Y126.81 E1.24788
G1 X126.284 Y127.103 E.0118
G1 X126.236 Y127.246 E.00603
G1 X126.032 Y127.602 E.01639
G1 X125.862 Y127.764 E.00939
G1 X125.626 Y127.897 E.0108
G1 X125.077 Y128.016 E.02244
G1 X94.884 Y128.011 E1.20605
G1 X94.591 Y127.973 E.01181
G1 X94.448 Y127.926 E.00603
G1 X94.092 Y127.722 E.01639
G1 X93.929 Y127.552 E.00939
G1 X93.796 Y127.317 E.01082
G1 X93.677 Y126.767 E.02246
G1 X93.685 Y96.279 E1.21782
G1 X93.71 Y95.54 E.02954
G1 X93.778 Y95.156 E.01561
G1 X94.005 Y94.465 E.02905
G1 X94.184 Y94.113 E.01575
G1 X94.303 Y93.937 E.00848
G1 X94.57 Y93.633 E.01619
G1 X94.899 Y93.298 E.01875
G1 X95.162 Y93.609 F9000
G1 F900
G1 X95.431 Y93.382 E.01407
G1 X95.802 Y93.14 E.0177
G1 X96.15 Y92.977 E.01533
G1 X96.467 Y92.885 E.01319
G1 X97.113 Y92.811 E.026
G1 X103.551 Y92.792 E.25716
G1 X123.124 Y92.802 E.78185
G1 X123.592 Y92.874 E.01889
G1 X123.859 Y92.969 E.01134
G1 X124.266 Y93.173 E.01817
G1 X124.607 Y93.405 E.01648
G1 X124.915 Y93.664 E.01605
G1 X125.192 Y93.95 E.01592
G1 X125.465 Y94.31 E.01805
G1 X125.609 Y94.556 E.01138
G1 X125.724 Y94.838 E.01215
G1 X125.833 Y95.238 E.01657
G1 X125.917 Y95.743 E.02047
G1 X125.914 Y126.646 E1.2344
G1 X125.895 Y126.947 E.01203
G1 X125.855 Y127.105 E.00652
G1 X125.711 Y127.343 E.0111
G1 X125.618 Y127.432 E.00516
G1 X125.434 Y127.539 E.00849
G1 X125.136 Y127.608 E.01221
G1 X95.11 Y127.604 E1.19938
G1 X94.753 Y127.591 E.01428
G1 X94.59 Y127.546 E.00674
G1 X94.351 Y127.401 E.01118
G1 X94.262 Y127.307 E.00516
G1 X94.154 Y127.124 E.00849
G1 X94.085 Y126.826 E.01223
G1 X94.1 Y95.724 E1.24237
G1 X94.209 Y95.108 E.02497
G1 X94.332 Y94.737 E.0156
G1 X94.537 Y94.319 E.01861
G1 X94.609 Y94.215 E.00506
G1 X95.135 Y93.638 E.03116
G1 X95.436 Y93.914 F9000
G1 F900
G1 X95.468 Y93.879 E.0019
G1 X95.694 Y93.694 E.01166
G1 X96.029 Y93.479 E.01588
G1 X96.324 Y93.347 E.01293
G1 X96.58 Y93.278 E.01061
G1 X97.107 Y93.219 E.02118
G1 X103.551 Y93.201 E.25738
G1 X122.135 Y93.2 E.74235
G1 X122.895 Y93.219 E.03035
G1 X123.063 Y93.206 E.00674
G1 X123.451 Y93.258 E.01564
G1 X123.674 Y93.334 E.0094
G1 X124.033 Y93.509 E.01597
G1 X124.342 Y93.715 E.01482
G1 X124.62 Y93.947 E.01445
G1 X124.865 Y94.196 E.01399
G1 X125.109 Y94.51 E.01587
G1 X125.261 Y94.77 E.01202
G1 X125.329 Y94.941 E.00734
G1 X125.431 Y95.307 E.01521
G1 X125.509 Y95.733 E.01728
G1 X125.506 Y126.65 E1.23496
G1 X125.487 Y126.929 E.01118
G1 X125.438 Y127.039 E.00479
G1 X125.325 Y127.146 E.00621
G1 X125.15 Y127.199 E.00731
G1 X95.111 Y127.195 E1.1999
G1 X94.846 Y127.194 E.0106
G1 X94.764 Y127.176 E.00333
G1 X94.655 Y127.127 E.00479
G1 X94.547 Y127.015 E.00622
G1 X94.494 Y126.84 E.00731
G1 X94.501 Y96.255 E1.22171
G1 X94.509 Y95.719 E.02138
G1 X94.574 Y95.461 E.01064
G1 X94.593 Y95.246 E.00864
G1 X94.722 Y94.859 E.01629
G1 X94.905 Y94.496 E.01621
G1 X95.409 Y93.943 E.0299
G1 E-.84 F2400
;WIPE_START
G1 F900
G1 X95.468 Y93.879 E-.03148
G1 X95.694 Y93.694 E-.10504
G1 X96.029 Y93.479 E-.14308
G1 X96.232 Y93.388 E-.0804
;WIPE_END
G17
G3 Z.64 I-.781 J.933 P1  F9000
G1 X124.101 Y116.708 Z.64
G1 Z.24
G1 E1.2 F1800
;TYPE:Inner wall
;WIDTH:0.432087
G1 F900
G1 X124.093 Y116.912 E.00761
;WIDTH:0.459999
G1 X124.079 Y117.255 E.01369
G1 X124.077 Y125.772 E.34023
G1 X95.921 Y125.767 E1.12469
G1 X95.923 Y117.249 E.34023
G1 X95.909 Y116.86 E.01556
;WIDTH:0.431115
G1 X95.894 Y116.471 E.01446
;WIDTH:0.402231
G1 X95.898 Y99.048 E.59754
;WIDTH:0.430631
G1 X95.913 Y98.659 E.01443
;WIDTH:0.459999
G1 X95.928 Y98.27 E.01555
G1 X95.931 Y96.086 E.08723
G1 X95.999 Y95.54 E.022
G1 X96.096 Y95.297 E.01042
G1 X96.446 Y94.922 E.02048
G1 X96.801 Y94.715 E.01643
G1 X97.162 Y94.646 E.01467
G1 X122.123 Y94.627 E.99707
G1 X123.065 Y94.65 E.03764
G1 X123.209 Y94.708 E.00622
G1 X123.653 Y95.003 E.02129
G1 X123.91 Y95.3 E.01569
G1 X124.031 Y95.658 E.01508
G1 X124.081 Y96.027 E.01489
G1 X124.095 Y98.662 E.10525
;WIDTH:0.432068
G1 X124.109 Y99.052 E.01452
;WIDTH:0.404175
G1 X124.107 Y116.57 E.60412
;WIDTH:0.432087
G1 X124.103 Y116.668 E.00366
G1 E-.84 F2400
;WIPE_START
G1 F900
G1 X124.093 Y116.912 E-.08799
G1 X124.079 Y117.255 E-.12338
G1 X124.078 Y117.667 E-.14864
;WIPE_END
G17
G3 Z.64 I-.347 J-1.166 P1  F9000
G1 X95.512 Y126.175 Z.64
G1 Z.24
G1 E1.2 F1800
;WIDTH:0.459999
G1 F900
G1 X95.522 Y96.08 E1.20213
G1 X95.591 Y95.472 E.02448
G1 X95.759 Y95.06 E.01776
G1 X96.069 Y94.727 E.01816
G1 X96.478 Y94.398 E.02098
G1 X96.833 Y94.268 E.01509
G1 X97.141 Y94.238 E.01238
G1 X122.128 Y94.219 E.99806
G1 X123.149 Y94.243 E.04081
G1 X123.362 Y94.329 E.00919
G1 X123.642 Y94.486 E.0128
G1 X124.039 Y94.82 E.02076
G1 X124.339 Y95.215 E.01978
G1 X124.49 Y95.798 E.02405
G1 X124.486 Y126.181 E1.21363
G1 X95.552 Y126.175 E1.15573
G1 X95.078 Y126.609 F9000
;TYPE:Outer wall
G1 F900
G1 X95.09 Y95.952 E1.2246
G1 X95.197 Y95.283 E.02707
G1 X95.401 Y94.807 E.02068
G1 X95.888 Y94.285 E.02851
G1 X96.274 Y94.01 E.01894
G1 X96.735 Y93.841 E.01962
G1 X97.12 Y93.803 E.01543
G1 X122.133 Y93.785 E.99912
G1 X123.238 Y93.811 E.04418
G1 X123.726 Y94.008 E.02101
G1 X124.222 Y94.375 E.02465
G1 X124.47 Y94.649 E.01476
G1 X124.742 Y95.041 E.01908
G1 X124.924 Y95.742 E.02893
G1 X124.92 Y126.615 E1.23319
G1 X95.118 Y126.609 E1.19043
G1 E-.84 F2400
;WIPE_START
G1 F900
G1 X95.117 Y125.609 E-.36
;WIPE_END
G17
G3 Z.64 I.342 J1.168 P1  F9000
G1 X122.922 Y117.463 Z.64
G1 Z.24
G1 E1.2 F1800
;TYPE:Inner wall
G1 F900
G1 X122.76 Y117.496 E.0066
G1 X97.237 Y117.492 E1.01951
G1 X96.845 Y117.414 E.016
G1 X96.42 Y117.084 E.02147
G1 X96.333 Y116.849 E.01
;WIDTH:0.431115
G1 X96.245 Y116.615 E.00929
;WIDTH:0.402231
G1 X96.248 Y99.048 E.60247
;WIDTH:0.430631
G1 X96.336 Y98.742 E.01181
;WIDTH:0.459999
G1 X96.423 Y98.435 E.01273
G1 X96.847 Y98.105 E.02147
G1 X97.24 Y98.027 E.016
G1 X122.763 Y98.03 E1.01951
G1 X123.156 Y98.109 E.016
G1 X123.58 Y98.439 E.02147
G1 X123.668 Y98.745 E.01273
;WIDTH:0.432068
G1 X123.756 Y99.052 E.01186
;WIDTH:0.404175
G1 X123.754 Y116.475 E.60085
;WIDTH:0.413038
G1 X123.743 Y116.647 E.00611
;WIDTH:0.459999
G1 X123.577 Y117.087 E.01879
G1 X123.153 Y117.417 E.02147
G1 X122.962 Y117.456 E.0078
G1 X122.844 Y117.071 F9000
G1 F900
G1 X122.76 Y117.087 E.0034
G1 X97.237 Y117.084 E1.01951
G1 X97.002 Y117.037 E.0096
G1 X96.747 Y116.839 E.01288
G1 X96.625 Y116.471 E.01548
G1 X96.627 Y99.048 E.69596
G1 X96.75 Y98.68 E.01548
G1 X97.004 Y98.482 E.01288
G1 X97.24 Y98.435 E.0096
G1 X122.763 Y98.439 E1.01951
G1 X122.999 Y98.486 E.0096
G1 X123.253 Y98.684 E.01288
G1 X123.376 Y99.052 E.01548
G1 X123.373 Y116.475 E.69596
G1 X123.251 Y116.842 E.01548
G1 X122.996 Y117.04 E.01288
G1 X122.883 Y117.063 E.0046
G1 X122.761 Y116.653 F9000
;TYPE:Outer wall
G1 F900
G1 X97.238 Y116.649 E1.01951
G1 X97.169 Y116.636 E.0028
G1 X97.059 Y116.498 E.00702
G1 X97.062 Y99.048 E.69705
G1 X97.097 Y98.941 E.00451
G1 X97.24 Y98.869 E.00638
G1 X122.763 Y98.873 E1.01951
G1 X122.906 Y98.945 E.00638
G1 X122.942 Y99.052 E.00451
G1 X122.939 Y116.475 E.69596
G1 X122.903 Y116.582 E.00451
G1 X122.796 Y116.635 E.00478
G1 E-.84 F2400
;WIPE_START
G1 F900
G1 X121.796 Y116.636 E-.36
;WIPE_END
G1 Z.64 F9000
G1 X123.499 Y117.294 Z.64
G1 Z.24
G1 E1.2 F1800
;TYPE:Bottom surface
;WIDTH:0.463653
G1 X123.772 Y117.567 E.01556
G1 X123.772 Y118.15 E.02349
G1 X123.302 Y117.68 E.02678
G1 X123.275 Y117.701 E.00137
G1 X122.829 Y117.79 E.01833
G1 X123.772 Y118.733 E.05373
G1 X123.772 Y119.316 E.02349
G1 X122.258 Y117.802 E.08627
G1 X121.675 Y117.802 E.02349
G1 X123.772 Y119.899 E.1195
G1 X123.772 Y120.481 E.02349
G1 X121.092 Y117.802 E.15272
G1 X120.509 Y117.802 E.02349
G1 X123.772 Y121.064 E.18594
G1 X123.772 Y121.647 E.02349
G1 X119.926 Y117.802 E.21916
G1 X119.343 Y117.802 E.02349
G1 X123.772 Y122.23 E.25238
G1 X123.771 Y122.813 E.02349
G1 X118.761 Y117.802 E.2856
G1 X118.178 Y117.802 E.02349
G1 X123.771 Y123.395 E.31882
G1 X123.771 Y123.978 E.02349
G1 X117.595 Y117.801 E.35204
G1 X117.012 Y117.801 E.02349
G1 X123.771 Y124.561 E.38526
G1 X123.771 Y125.144 E.02349
G1 X116.429 Y117.801 E.41848
G1 X115.846 Y117.801 E.02349
G1 X123.51 Y125.466 E.43683
G1 X122.927 Y125.465 E.02349
G1 X115.263 Y117.801 E.43683
G1 X114.68 Y117.801 E.02349
G1 X122.344 Y125.465 E.43683
G1 X121.761 Y125.465 E.02349
G1 X114.097 Y117.801 E.43683
G1 X113.514 Y117.801 E.02349
G1 X121.178 Y125.465 E.43683
G1 X120.595 Y125.465 E.02349
G1 X112.931 Y117.801 E.43683
G1 X112.348 Y117.801 E.02349
G1 X120.012 Y125.465 E.43682
G1 X119.429 Y125.465 E.02349
G1 X111.765 Y117.801 E.43682
G1 X111.182 Y117.801 E.02349
G1 X118.846 Y125.465 E.43682
G1 X118.263 Y125.465 E.02349
G1 X110.599 Y117.8 E.43682
G1 X110.016 Y117.8 E.02349
G1 X117.68 Y125.464 E.43682
G1 X117.097 Y125.464 E.02349
G1 X109.433 Y117.8 E.43682
G1 X108.85 Y117.8 E.02349
G1 X116.514 Y125.464 E.43682
G1 X115.931 Y125.464 E.02349
G1 X108.267 Y117.8 E.43681
G1 X107.684 Y117.8 E.02349
G1 X115.348 Y125.464 E.43681
G1 X114.766 Y125.464 E.02349
G1 X107.102 Y117.8 E.43681
G1 X106.519 Y117.8 E.02349
G1 X114.183 Y125.464 E.43681
G1 X113.6 Y125.464 E.02349
G1 X105.936 Y117.8 E.43681
G1 X105.353 Y117.8 E.02349
G1 X113.017 Y125.464 E.43681
G1 X112.434 Y125.464 E.02349
G1 X104.77 Y117.8 E.43681
G1 X104.187 Y117.8 E.02349
G1 X111.851 Y125.463 E.43681
G1 X111.268 Y125.463 E.02349
G1 X103.604 Y117.799 E.4368
G1 X103.021 Y117.799 E.02349
G1 X110.685 Y125.463 E.4368
G1 X110.102 Y125.463 E.02349
G1 X102.438 Y117.799 E.4368
G1 X101.855 Y117.799 E.02349
G1 X109.519 Y125.463 E.4368
G1 X108.936 Y125.463 E.02349
G1 X101.272 Y117.799 E.4368
G1 X100.689 Y117.799 E.02349
G1 X108.353 Y125.463 E.4368
G1 X107.77 Y125.463 E.02349
G1 X100.106 Y117.799 E.4368
G1 X99.523 Y117.799 E.02349
G1 X107.187 Y125.463 E.43679
G1 X106.604 Y125.462 E.02349
G1 X98.94 Y117.799 E.43679
G1 X98.357 Y117.799 E.02349
G1 X106.021 Y125.462 E.43679
G1 X105.438 Y125.462 E.02349
G1 X97.774 Y117.799 E.43679
G1 X97.182 Y117.79 E.02386
G1 X104.855 Y125.462 E.4373
G1 X104.272 Y125.462 E.02349
G1 X96.229 Y117.42 E.45839
G1 X96.229 Y118.002 E.02348
G1 X103.689 Y125.462 E.42517
G1 X103.106 Y125.462 E.02349
G1 X96.229 Y118.585 E.39195
G1 X96.229 Y119.168 E.02348
G1 X102.523 Y125.462 E.35873
G1 X101.94 Y125.462 E.02349
G1 X96.229 Y119.75 E.32551
G1 X96.229 Y120.333 E.02348
G1 X101.357 Y125.462 E.29229
G1 X100.774 Y125.461 E.02349
G1 X96.229 Y120.916 E.25908
G1 X96.228 Y121.499 E.02348
G1 X100.191 Y125.461 E.22586
G1 X99.608 Y125.461 E.02349
G1 X96.228 Y122.081 E.19264
G1 X96.228 Y122.664 E.02348
G1 X99.025 Y125.461 E.15942
G1 X98.442 Y125.461 E.02349
G1 X96.228 Y123.247 E.1262
G1 X96.228 Y123.829 E.02348
G1 X97.859 Y125.461 E.09298
G1 X97.276 Y125.461 E.02349
G1 X96.228 Y124.412 E.05977
G1 X96.228 Y124.995 E.02348
G1 X96.877 Y125.645 E.03703
G1 E-.84 F2400
;WIPE_START
G1 F1800
G1 X96.228 Y124.995 E-.33073
G1 X96.228 Y124.914 E-.02927
;WIPE_END
G17
G3 Z.64 I.883 J.837 P1  F9000
G1 X123.917 Y95.705 Z.64
G1 Z.24
G1 E1.2 F1800
;WIDTH:0.466395
G1 X123.433 Y95.221 E.02779
G1 X123.16 Y95.018 E.01379
G1 X123.002 Y94.955 E.00691
G1 X122.57 Y94.944 E.01754
G1 X123.775 Y96.15 E.06915
G1 X123.775 Y96.736 E.0238
G1 X121.973 Y94.934 E.10339
G1 X121.387 Y94.935 E.02379
G1 X123.775 Y97.323 E.13703
G1 X123.775 Y97.91 E.0238
G1 X120.8 Y94.935 E.17066
G1 X120.214 Y94.935 E.02379
G1 X123.06 Y97.781 E.16328
G1 X122.773 Y97.724 E.01185
G1 X122.416 Y97.724 E.01451
G1 X119.628 Y94.936 E.15996
G1 X119.041 Y94.936 E.02379
G1 X121.829 Y97.724 E.15993
G1 X121.242 Y97.724 E.02381
G1 X118.455 Y94.937 E.1599
G1 X117.869 Y94.937 E.02379
G1 X120.655 Y97.724 E.15987
G1 X120.068 Y97.724 E.02381
G1 X117.282 Y94.938 E.15984
G1 X116.696 Y94.938 E.02379
G1 X119.482 Y97.724 E.15981
G1 X118.895 Y97.723 E.02381
G1 X116.11 Y94.938 E.15979
G1 X115.523 Y94.939 E.02379
G1 X118.308 Y97.723 E.15976
G1 X117.721 Y97.723 E.02381
G1 X114.937 Y94.939 E.15973
G1 X114.351 Y94.94 E.02379
G1 X117.134 Y97.723 E.1597
G1 X116.547 Y97.723 E.02381
G1 X113.764 Y94.94 E.15967
G1 X113.178 Y94.941 E.02379
G1 X115.961 Y97.723 E.15964
G1 X115.374 Y97.723 E.02381
G1 X112.592 Y94.941 E.15961
G1 X112.006 Y94.941 E.02379
G1 X114.787 Y97.723 E.15958
G1 X114.2 Y97.723 E.02381
G1 X111.419 Y94.942 E.15955
G1 X110.833 Y94.942 E.02379
G1 X113.613 Y97.723 E.15952
G1 X113.026 Y97.723 E.02381
G1 X110.247 Y94.943 E.15949
G1 X109.66 Y94.943 E.02379
G1 X112.44 Y97.723 E.15946
G1 X111.853 Y97.722 E.02381
G1 X109.074 Y94.944 E.15943
G1 X108.488 Y94.944 E.02379
G1 X111.266 Y97.722 E.1594
G1 X110.679 Y97.722 E.02381
G1 X107.901 Y94.945 E.15937
G1 X107.315 Y94.945 E.02379
G1 X110.092 Y97.722 E.15934
G1 X109.505 Y97.722 E.02381
G1 X106.729 Y94.945 E.15932
G1 X106.142 Y94.946 E.02379
G1 X108.919 Y97.722 E.15929
G1 X108.332 Y97.722 E.02381
G1 X105.556 Y94.946 E.15926
G1 X104.97 Y94.947 E.02379
G1 X107.745 Y97.722 E.15923
