; HEADER_BLOCK_START
; generated by OrcaSlicer 2.3.1 on 2026-01-06 at 11:16:59
; total layer number: 87
; filament_density: 1.24
; filament_diameter: 1.75
; max_z_height: 17.64
; HEADER_BLOCK_END

; external perimeters extrusion width = 0.42mm
; perimeters extrusion width = 0.45mm
; infill extrusion width = 0.45mm
; solid infill extrusion width = 0.42mm
; top infill extrusion width = 0.42mm
; support material extrusion width = 0.38mm
; first layer extrusion width = 0.46mm

; EXECUTABLE_BLOCK_START
M201 X2500 Y2500 Z500 E5000
M203 X250 Y250 Z5 E40
M204 P2500 R500 T2500 ; sets acceleration (P, T) and retract acceleration (R), mm/sec^2
M205 X10.00 Y10.00 Z0.40 E5.00 ; sets the jerk limits, mm/sec
;TYPE:Custom
M220 S100 ;Reset Feedrate 
M221 S100 ;Reset Flowrate 
 
M104 S215 ;Set final nozzle temp 
M190 S60 ;Set and wait for bed temp to stabilize 
G28 ;Home 
G92 E0 ;Reset Extruder 
G1 Z2.0 F3000 ;Move Z Axis up 
G1 X-2.1 Y20 Z0.28 F5000.0 ;Move to start position 
M109 S215 ;Wait for nozzle temp to stabilize 
G1 X-2.1 Y145.0 Z0.28 F1500.0 E15 ;Draw the first line 
G1 X-2.4 Y145.0 Z0.28 F5000.0 ;Move to side a little 
G1 X-2.4 Y20 Z0.28 F1500.0 E30 ;Draw the second line 
G92 E0  ;Reset Extruder 
G1 E-1.0000 F1800 ;Retract a bit 
G1 Z2.0 F3000 ;Move Z Axis up 
G1 E0.0000 F1800
G90
G21
M83 ; use relative distances for extrusion
; Filament gcode
M106 S255
;LAYER_CHANGE
;Z:0.24
;HEIGHT:0.24
;BEFORE_LAYER_CHANGE
;0.24
G92 E0

G1 E-1.2 F2400
;_SET_FAN_SPEED_CHANGING_LAYER
M204 P500
; printing object tapaypantalla.stl id:0 copy 0
M204 T500
G1 X148.126 Y115.796 F9000
G1 Z.64
G1 Z.24
G1 E1.2 F1800
;TYPE:Support
;WIDTH:0.46
G1 F900
G1 X148.126 Y105.188 E.42376
G1 X148.58 Y105.188 E.01813
G1 X148.58 Y115.75 E.42192
G1 X149.034 Y115.897 E.01906
G1 X149.034 Y105.188 E.42779
G1 X149.488 Y105.188 E.01813
G1 X149.488 Y116.044 E.43367
G1 X149.586 Y116.076 E.00414
G1 X149.942 Y116.124 E.01432
G1 X149.942 Y105.188 E.43686
G1 X150.396 Y105.188 E.01813
G1 X150.396 Y116.186 E.43931
G1 X150.471 Y116.196 E.00302
G1 X150.849 Y116.178 E.01515
G1 X150.849 Y105.188 E.43902
G1 X151.303 Y105.188 E.01813
G1 X151.303 Y116.158 E.4382
G1 X151.757 Y116.065 E.01851
G1 X151.757 Y105.188 E.43448
G1 X152.211 Y105.188 E.01813
G1 X152.211 Y115.961 E.43033
G1 X152.53 Y115.828 E.01381
G1 X152.665 Y115.872 E.00565
G1 X152.665 Y105.188 E.42678
G1 X153.119 Y105.188 E.01813
G1 X153.119 Y115.948 E.42983
G1 X153.573 Y116.01 E.0183
G1 X153.573 Y105.188 E.43228
G1 X154.027 Y105.188 E.01813
G1 X154.027 Y116.172 E.43875
G1 X154.481 Y116.534 E.02319
G1 X154.481 Y105.188 E.45321
G1 X154.934 Y105.188 E.01813
G1 X154.934 Y116.838 E.46537
G1 X155.388 Y117.082 E.02059
G1 X155.388 Y105.188 E.47513
G1 X155.842 Y105.188 E.01813
G1 X155.842 Y117.253 E.48196
G1 X156.296 Y117.401 E.01906
G1 X156.296 Y105.188 E.48785
G1 X156.75 Y105.188 E.01813
G1 X156.75 Y117.472 E.49069
G1 X157.204 Y117.533 E.0183
G1 X157.204 Y105.188 E.49315
G1 X157.658 Y105.188 E.01813
G1 X157.658 Y117.518 E.49253
G1 X158.112 Y117.498 E.01815
G1 X158.112 Y105.188 E.49172
G1 X158.565 Y105.188 E.01813
G1 X158.565 Y117.396 E.48766
G1 X159.019 Y117.292 E.0186
G1 X159.019 Y105.188 E.48352
G1 X159.473 Y105.188 E.01813
G1 X159.473 Y117.189 E.47938
G1 X159.815 Y117.111 E.014
G1 X159.473 Y118.019 E.03875
G1 X159.473 Y121.85 E.15304
G1 X159.567 Y122.099 E.01065
G1 X159.927 Y122.7 E.02797
G1 X159.927 Y105.188 E.69953
G1 X160.381 Y105.188 E.01813
G1 X160.381 Y131.812 E1.06351
G1 X160.835 Y131.812 E.01813
G1 X160.835 Y105.188 E1.06351
G1 X161.289 Y105.188 E.01813
G1 X161.289 Y131.812 E1.06351
G1 X161.743 Y131.812 E.01813
G1 X161.743 Y105.188 E1.06351
G1 X162.197 Y105.188 E.01813
G1 X162.197 Y131.812 E1.06351
G1 X162.65 Y131.812 E.01813
G1 X162.65 Y105.188 E1.06351
G1 X163.104 Y105.188 E.01813
G1 X163.104 Y131.812 E1.06351
G1 X163.558 Y131.812 E.01813
G1 X163.558 Y105.188 E1.06351
G1 X164.012 Y105.188 E.01813
G1 X164.012 Y131.812 E1.06351
G1 X164.466 Y131.812 E.01813
G1 X164.466 Y105.188 E1.06351
G1 X164.92 Y105.188 E.01813
G1 X164.92 Y131.812 E1.06351
G1 X165.374 Y131.812 E.01813
G1 X165.374 Y105.188 E1.06351
G1 X165.828 Y105.188 E.01813
G1 X165.828 Y131.969 E1.06977
G1 X167.189 Y130.436 F9000
G1 F900
G1 X167.189 Y125.702 E.1891
G1 X166.998 Y125.304 E.01764
G1 X166.735 Y124.943 E.01782
G1 X166.735 Y130.771 E.2328
G1 X166.474 Y131.131 E.01776
G1 X166.281 Y131.315 E.01065
G1 X166.281 Y105.188 E1.04364
G1 X166.735 Y105.188 E.01813
G1 X166.735 Y124.101 E.75549
G1 X167.189 Y123.791 E.02195
G1 X167.189 Y105.004 E.75046
G1 X167.68 Y123.769 F9000
G1 F900
G1 X167.68 Y104.82 E.75689
G1 X140.32 Y104.82 E1.09289
G1 X140.32 Y128.781 E.9571
G1 X141.026 Y129.345 E.0361
G1 X141.869 Y129.799 E.03824
G1 X142.779 Y130.096 E.03825
G1 X143.728 Y130.226 E.03826
G1 X144.685 Y130.185 E.03827
G1 X145.221 Y130.063 E.02195
G1 X145.507 Y130.823 E.03242
G1 X145.998 Y131.645 E.03828
G1 X146.466 Y132.18 E.02836
G1 X154.182 Y132.18 E.30821
G1 X154.349 Y132.02 E.00924
G1 X154.912 Y131.245 E.03828
G1 X155.328 Y130.382 E.03828
G1 X155.584 Y129.458 E.03828
G1 X155.67 Y128.503 E.03829
G1 X155.584 Y127.548 E.03829
G1 X155.329 Y126.624 E.03829
G1 X154.914 Y125.761 E.03829
G1 X154.35 Y124.985 E.03829
G1 X153.658 Y124.322 E.0383
G1 X152.858 Y123.794 E.0383
G1 X151.976 Y123.417 E.0383
G1 X151.041 Y123.204 E.0383
G1 X150.084 Y123.16 E.0383
G1 X149.062 Y123.299 E.04119
G1 X148.981 Y123.007 E.01211
G1 X148.564 Y122.142 E.03835
G1 X148.133 Y121.549 E.0293
G1 X148.282 Y121.353 E.00981
G1 X148.713 Y120.492 E.03847
G1 X148.977 Y119.565 E.03848
G1 X149.067 Y118.606 E.03848
G1 X148.977 Y117.647 E.03848
G1 X148.713 Y116.721 E.03848
G1 X148.39 Y116.075 E.02884
G1 X149.504 Y116.436 E.04682
G1 X150.454 Y116.564 E.03828
G1 X151.411 Y116.521 E.03827
G1 X152.345 Y116.307 E.03827
G1 X152.548 Y116.22 E.00881
G1 X152.662 Y116.258 E.0048
G1 X153.612 Y116.386 E.03828
G1 X153.701 Y116.382 E.00354
G1 X154.509 Y117.027 E.0413
G1 X155.353 Y117.481 E.0383
G1 X156.265 Y117.777 E.0383
G1 X157.215 Y117.906 E.0383
G1 X158.173 Y117.863 E.0383
G1 X159.23 Y117.621 E.04331
G1 X158.896 Y118.509 E.03787
G1 X158.724 Y119.454 E.03839
G1 X158.724 Y120.415 E.03839
G1 X158.896 Y121.361 E.03839
G1 X159.235 Y122.26 E.03838
G1 X159.729 Y123.084 E.03837
G1 X159.91 Y123.291 E.01098
G1 X159.031 Y123.991 E.04489
G1 X158.4 Y124.713 E.03829
G1 X157.908 Y125.536 E.03829
G1 X157.571 Y126.433 E.0383
G1 X157.4 Y127.377 E.0383
G1 X157.4 Y128.335 E.0383
G1 X157.571 Y129.279 E.0383
G1 X157.908 Y130.176 E.0383
G1 X158.399 Y131 E.0383
G1 X159.03 Y131.722 E.0383
G1 X159.605 Y132.18 E.02937
G1 X165.842 Y132.18 E.24911
G1 X166.06 Y132.036 E.01044
G1 X166.752 Y131.373 E.03829
G1 X167.315 Y130.598 E.03828
G1 X167.68 Y129.84 E.03359
G1 X167.68 Y125.873 E.15845
G1 X167.315 Y125.115 E.03364
G1 X166.846 Y124.469 E.03187
G1 X167.391 Y124.107 E.02616
G1 X167.68 Y123.83 E.01598
G1 X158.112 Y125.554 F9000
G1 F900
G1 X158.112 Y129.674 E.16457
G1 X158.24 Y130.016 E.01461
G1 X158.565 Y130.561 E.02534
G1 X158.565 Y125.153 E.21602
G1 X158.699 Y124.93 E.01037
G1 X159.019 Y124.563 E.01946
G1 X159.019 Y131.15 E.26313
G1 X159.285 Y131.455 E.01614
G1 X159.473 Y131.605 E.0096
G1 X159.473 Y124.109 E.29941
G1 X159.927 Y123.747 E.02318
G1 X159.927 Y131.996 E.3295
G1 E-.84 F2400
;WIPE_START
G1 F900
G1 X159.927 Y130.996 E-.36
;WIPE_END
G17
G3 Z.64 I.054 J-1.216 P1  F9000
G1 X154.934 Y130.776 Z.64
G1 Z.24
G1 E1.2 F1800
G1 F900
G1 X154.934 Y126.651 E.16475
G1 X154.597 Y125.95 E.0311
G1 X154.481 Y125.79 E.0079
G1 X154.481 Y131.214 E.21667
G1 X154.071 Y131.777 E.02782
G1 X154.027 Y131.812 E.00226
G1 X154.027 Y125.184 E.26477
G1 X153.573 Y124.75 E.02509
G1 X153.573 Y131.812 E.28211
G1 X153.119 Y131.812 E.01813
G1 X153.119 Y124.407 E.2958
G1 X152.665 Y124.111 E.02164
G1 X152.665 Y131.812 E.30761
G1 X152.211 Y131.812 E.01813
G1 X152.211 Y123.917 E.31537
G1 X151.862 Y123.768 E.01517
G1 X151.757 Y123.744 E.00429
G1 X151.757 Y131.812 E.32228
G1 X151.303 Y131.812 E.01813
G1 X151.303 Y123.64 E.32642
G1 X150.992 Y123.569 E.01277
G1 X150.849 Y123.563 E.00569
G1 X150.849 Y131.812 E.32952
G1 X150.396 Y131.812 E.01813
G1 X150.396 Y123.542 E.33034
G1 X150.1 Y123.529 E.01182
G1 X149.942 Y123.551 E.00638
G1 X149.942 Y131.812 E.33001
G1 X149.488 Y131.812 E.01813
G1 X149.488 Y123.612 E.32755
G1 X149.034 Y123.674 E.0183
G1 X149.034 Y131.812 E.3251
G1 X148.58 Y131.812 E.01813
G1 X148.58 Y123.021 E.35115
G1 X148.248 Y122.331 E.0306
G1 X148.126 Y122.164 E.00825
G1 X148.126 Y131.812 E.38539
G1 X147.672 Y131.812 E.01813
G1 X147.672 Y105.188 E1.06351
G1 X147.218 Y105.188 E.01813
G1 X147.218 Y131.812 E1.06351
G1 X146.765 Y131.812 E.01813
G1 X146.765 Y105.188 E1.06351
G1 X146.311 Y105.188 E.01813
G1 X146.311 Y131.444 E1.0488
G1 X145.857 Y130.692 E.03509
G1 X145.857 Y105.188 E1.01875
G1 X145.403 Y105.188 E.01813
G1 X145.403 Y129.645 E.97694
G1 X144.949 Y129.748 E.01859
G1 X144.949 Y105.188 E.98105
G1 X144.495 Y105.188 E.01813
G1 X144.495 Y129.825 E.98412
G1 X144.041 Y129.845 E.01815
G1 X144.041 Y105.188 E.98491
G1 X143.587 Y105.188 E.01813
G1 X143.587 Y129.836 E.98456
G1 X143.133 Y129.774 E.0183
G1 X143.133 Y105.188 E.98208
G1 X142.68 Y105.188 E.01813
G1 X142.68 Y129.677 E.97822
G1 X142.226 Y129.529 E.01907
G1 X142.226 Y105.188 E.97231
G1 X141.772 Y105.188 E.01813
G1 X141.772 Y129.329 E.96433
G1 X141.318 Y129.084 E.0206
G1 X141.318 Y105.188 E.95455
G1 X140.864 Y105.188 E.01813
G1 X140.864 Y128.98 E.95038
G1 X148.126 Y121.253 F9000
G1 F900
G1 X148.126 Y116.37 E.19503
G1 X148.368 Y116.854 E.02163
G1 X148.58 Y117.595 E.03076
G1 X148.58 Y120.286 E.1075
G1 E-.84 F2400
;WIPE_START
G1 F900
G1 X148.58 Y119.286 E-.36
;WIPE_END
G17
G3 Z.64 I-1.217 J0 P1  F9000
G1 X148.58 Y148.469 Z.64
G1 Z.24
G1 E1.2 F1800
;TYPE:Brim
G1 F900
G1 X45.449 Y148.468 E4.11953
G1 X44.477 Y148.387 E.03895
G1 X43.512 Y148.155 E.03963
G1 X42.573 Y147.768 E.04057
G1 X41.807 Y147.307 E.03574
G1 X41.594 Y147.152 E.01051
G1 X41.023 Y146.664 E.03001
G1 X40.837 Y146.478 E.01051
G1 X40.261 Y145.793 E.03575
G1 X39.742 Y144.946 E.03967
G1 X39.393 Y144.122 E.03575
G1 X39.312 Y143.873 E.01048
G1 X39.11 Y143.001 E.03574
G1 X39.03 Y141.988 E.0406
G1 X39.032 Y77.937 E2.55848
G1 X39.113 Y76.977 E.03848
G1 X39.345 Y76.012 E.03964
G1 X39.732 Y75.073 E.04057
G1 X40.193 Y74.307 E.03574
G1 X40.348 Y74.094 E.01051
G1 X40.836 Y73.523 E.03001
G1 X41.022 Y73.337 E.01051
G1 X41.707 Y72.761 E.03574
G1 X42.554 Y72.242 E.03967
G1 X43.378 Y71.893 E.03575
G1 X43.627 Y71.812 E.01048
G1 X44.499 Y71.61 E.03574
G1 X45.512 Y71.53 E.0406
G1 X174.552 Y71.532 E5.15444
G1 X175.381 Y71.595 E.03321
G1 X175.641 Y71.636 E.0105
G1 X176.51 Y71.852 E.03577
G1 X177.317 Y72.181 E.03484
G1 X177.552 Y72.3 E.01049
G1 X178.292 Y72.76 E.03481
G1 X179.082 Y73.434 E.0415
G1 X179.74 Y74.208 E.04057
G1 X180.2 Y74.948 E.03481
G1 X180.319 Y75.182 E.01049
G1 X180.655 Y76.012 E.03577
G1 X180.864 Y76.859 E.03484
G1 X180.905 Y77.119 E.01051
G1 X180.968 Y77.948 E.03322
G1 X180.968 Y142.063 E2.56105
G1 X180.887 Y143.023 E.03848
G1 X180.655 Y143.988 E.03964
G1 X180.268 Y144.927 E.04057
G1 X179.806 Y145.693 E.03574
G1 X179.652 Y145.906 E.01051
G1 X179.164 Y146.477 E.03001
G1 X178.978 Y146.663 E.01051
G1 X178.293 Y147.239 E.03575
G1 X177.446 Y147.758 E.03967
G1 X176.622 Y148.107 E.03575
G1 X176.373 Y148.188 E.01048
G1 X175.501 Y148.39 E.03574
G1 X174.488 Y148.47 E.0406
G1 X148.62 Y148.469 E1.03329
G1 X148.62 Y148.061 F9000
G1 F900
G1 X45.471 Y148.06 E4.12024
G1 X44.551 Y147.983 E.03686
G1 X43.648 Y147.768 E.03711
G1 X42.766 Y147.406 E.03807
G1 X42.037 Y146.968 E.03395
G1 X41.843 Y146.828 E.00957
G1 X41.304 Y146.367 E.02834
G1 X41.134 Y146.197 E.00957
G1 X40.588 Y145.546 E.03397
G1 X40.111 Y144.767 E.03649
G1 X39.778 Y143.984 E.03397
G1 X39.705 Y143.758 E.00949
G1 X39.514 Y142.929 E.03397
G1 X39.439 Y141.967 E.03856
G1 X39.44 Y77.959 E2.55676
G1 X39.517 Y77.052 E.03639
G1 X39.732 Y76.148 E.03712
G1 X40.094 Y75.266 E.03807
G1 X40.532 Y74.537 E.03396
G1 X40.672 Y74.343 E.00957
G1 X41.133 Y73.804 E.02834
G1 X41.303 Y73.634 E.00957
G1 X41.954 Y73.088 E.03397
G1 X42.733 Y72.611 E.03649
G1 X43.516 Y72.278 E.03397
G1 X43.742 Y72.205 E.00949
G1 X44.571 Y72.014 E.03397
G1 X45.533 Y71.939 E.03856
G1 X174.532 Y71.94 E5.1528
G1 X175.328 Y72.001 E.03192
G1 X175.565 Y72.038 E.00955
G1 X176.374 Y72.239 E.03332
G1 X177.143 Y72.551 E.03312
G1 X177.355 Y72.659 E.00953
G1 X178.042 Y73.086 E.03231
G1 X178.785 Y73.718 E.03894
G1 X179.414 Y74.457 E.03879
G1 X179.841 Y75.145 E.03233
G1 X179.949 Y75.357 E.00951
G1 X180.262 Y76.13 E.03333
G1 X180.462 Y76.935 E.03312
G1 X180.499 Y77.172 E.00957
G1 X180.56 Y77.968 E.03192
G1 X180.559 Y142.051 E2.55975
G1 X180.48 Y142.967 E.03672
G1 X180.268 Y143.852 E.03638
G1 X179.906 Y144.734 E.03807
G1 X179.468 Y145.463 E.03396
G1 X179.328 Y145.657 E.00957
G1 X178.867 Y146.196 E.02834
G1 X178.697 Y146.366 E.00957
G1 X178.046 Y146.912 E.03397
G1 X177.267 Y147.389 E.03649
G1 X176.484 Y147.722 E.03397
G1 X176.258 Y147.795 E.0095
G1 X175.429 Y147.986 E.03397
G1 X174.467 Y148.061 E.03856
G1 X148.66 Y148.061 E1.03086
G1 X148.66 Y147.653 F9000
G1 F900
G1 X45.509 Y147.653 E4.12033
G1 X44.685 Y147.591 E.03301
G1 X43.823 Y147.395 E.03531
G1 X42.871 Y147 E.04116
G1 X42.188 Y146.577 E.0321
G1 X41.536 Y146.025 E.0341
G1 X40.956 Y145.357 E.03536
G1 X40.499 Y144.627 E.03439
G1 X40.106 Y143.679 E.04103
G1 X39.914 Y142.848 E.03403
G1 X39.85 Y142.062 E.03152
G1 X39.847 Y78.01 E2.55854
G1 X39.932 Y77.045 E.03867
G1 X40.124 Y76.265 E.03211
G1 X40.45 Y75.467 E.03443
G1 X40.936 Y74.67 E.0373
G1 X41.532 Y73.979 E.03645
G1 X42.236 Y73.388 E.03671
G1 X42.903 Y72.983 E.03118
G1 X43.688 Y72.649 E.03406
G1 X44.546 Y72.432 E.03535
G1 X45.51 Y72.347 E.03865
G1 X174.491 Y72.347 E5.15212
G1 X175.315 Y72.409 E.03301
G1 X176.177 Y72.605 E.03531
G1 X177.127 Y72.999 E.04108
G1 X177.857 Y73.456 E.03439
G1 X178.525 Y74.036 E.03536
G1 X179.077 Y74.688 E.0341
G1 X179.5 Y75.371 E.0321
G1 X179.895 Y76.323 E.04116
G1 X180.091 Y77.185 E.03531
G1 X180.153 Y78.009 E.03301
G1 X180.153 Y141.991 E2.55574
G1 X180.091 Y142.815 E.03301
G1 X179.895 Y143.677 E.03531
G1 X179.501 Y144.629 E.04114
G1 X179.029 Y145.377 E.03532
G1 X178.47 Y146.02 E.03404
G1 X177.812 Y146.577 E.03444
G1 X177.129 Y147 E.03208
G1 X176.177 Y147.395 E.04116
G1 X175.315 Y147.591 E.03531
G1 X174.491 Y147.653 E.03301
G1 X148.7 Y147.653 E1.03022
G1 X148.7 Y147.244 F9000
G1 F900
G1 X45.504 Y147.244 E4.12211
G1 X44.707 Y147.183 E.03193
G1 X43.907 Y146.995 E.03285
G1 X43.095 Y146.659 E.03511
G1 X42.396 Y146.225 E.03286
G1 X41.795 Y145.71 E.03159
G1 X41.261 Y145.085 E.03286
G1 X40.841 Y144.405 E.03191
G1 X40.505 Y143.593 E.03509
G1 X40.322 Y142.824 E.03159
G1 X40.257 Y142.023 E.03208
G1 X40.256 Y78.004 E2.55722
G1 X40.326 Y77.152 E.03416
G1 X40.522 Y76.353 E.03284
G1 X40.83 Y75.616 E.03191
G1 X41.242 Y74.941 E.03159
G1 X41.79 Y74.296 E.03382
G1 X42.441 Y73.742 E.03414
G1 X43.123 Y73.327 E.03191
G1 X43.853 Y73.023 E.03159
G1 X44.652 Y72.826 E.03286
G1 X45.504 Y72.756 E.03416
G1 X174.496 Y72.756 E5.15252
G1 X175.293 Y72.817 E.03193
G1 X176.093 Y73.005 E.03285
G1 X176.905 Y73.341 E.03509
G1 X177.585 Y73.761 E.03191
G1 X178.21 Y74.295 E.03286
G1 X178.725 Y74.896 E.03159
G1 X179.159 Y75.595 E.03286
G1 X179.495 Y76.407 E.03511
G1 X179.683 Y77.207 E.03285
G1 X179.744 Y78.004 E.03193
G1 X179.744 Y141.996 E2.55611
G1 X179.683 Y142.793 E.03193
G1 X179.495 Y143.593 E.03285
G1 X179.159 Y144.405 E.03511
G1 X178.725 Y145.104 E.03286
G1 X178.21 Y145.705 E.03159
G1 X177.604 Y146.225 E.03191
G1 X176.905 Y146.659 E.03284
G1 X176.093 Y146.995 E.03511
G1 X175.293 Y147.183 E.03285
G1 X174.496 Y147.244 E.03193
G1 X148.74 Y147.244 E1.02881
G1 E-.84 F2400
;WIPE_START
G1 F900
G1 X147.74 Y147.244 E-.36
;WIPE_END
G17
G3 Z.64 I.079 J1.214 P1  F9000
G1 X176.231 Y145.398 Z.64
G1 Z.24
G1 E1.2 F1800
;TYPE:Inner wall
;WIDTH:0.459999
G1 F900
G1 X175.678 Y145.627 E.0239
G1 X175.097 Y145.767 E.0239
G1 X174.454 Y145.817 E.02576
G1 X45.546 Y145.817 E5.14914
G1 X44.903 Y145.767 E.02576
G1 X44.322 Y145.627 E.0239
G1 X43.769 Y145.398 E.0239
G1 X43.258 Y145.085 E.0239
G1 X42.803 Y144.697 E.0239
G1 X42.415 Y144.242 E.0239
G1 X42.102 Y143.731 E.0239
G1 X41.873 Y143.178 E.0239
